tools/download-figma-icons/icons/solid/street-light.svg

<svg width="24" height="24" viewBox="0 0 24 24" fill="none" xmlns="http://www.w3.org/2000/svg">
<path fill-rule="evenodd" clip-rule="evenodd" d="M9.73211 22.5H8.92985L8.42021 15.6937C8.39102 15.3022 8.06548 15 7.67408 15H6.73862V5.253C6.73862 3.18375 8.41871 1.5 10.4835 1.5H20.2093C20.6232 1.5 20.9577 1.16475 20.9577 0.75C20.9577 0.33525 20.6232 0 20.2093 0H10.4835C7.59326 0 5.24187 2.3565 5.24187 5.253V15H4.3064C3.915 15 3.58946 15.3022 3.56027 15.6937L3.05063 22.5H2.24837C1.83452 22.5 1.5 22.8353 1.5 23.25C1.5 23.6647 1.83452 24 2.24837 24H3.74512H8.23536H9.73211C10.146 24 10.4805 23.6647 10.4805 23.25C10.4805 22.8353 10.146 22.5 9.73211 22.5ZM16.4675 5.25C18.1408 5.25 19.5762 4.32 20.2093 3H12.7256C13.3587 4.32 14.7941 5.25 16.4675 5.25ZM15.7191 7.5C15.7191 7.08525 16.0536 6.75 16.4675 6.75C16.8813 6.75 17.2158 7.08525 17.2158 7.5V9.75C17.2158 10.1648 16.8813 10.5 16.4675 10.5C16.0536 10.5 15.7191 10.1648 15.7191 9.75V7.5ZM22.2805 7.39012L20.551 5.65688C20.2592 5.36438 19.7854 5.36438 19.4928 5.65688C19.201 5.95012 19.201 6.42487 19.4928 6.71812L21.2223 8.45062C21.3683 8.59687 21.5598 8.67037 21.7514 8.67037C21.943 8.67037 22.1346 8.59687 22.2805 8.45062C22.5731 8.15737 22.5731 7.68337 22.2805 7.39012ZM10.5123 7.3905L12.2418 5.65725C12.5344 5.364 13.0074 5.364 13.3 5.65725C13.5926 5.9505 13.5926 6.4245 13.3 6.71775L11.5712 8.451C11.4246 8.59725 11.233 8.67075 11.0414 8.67075C10.8506 8.67075 10.659 8.59725 10.5123 8.451C10.2204 8.15775 10.2204 7.683 10.5123 7.3905Z" fill="black"/>
</svg>

<svg xmlns="http://www.w3.org/2000/svg" width="24" height="24" fill="none" viewBox="0 0 24 24"><path fill="currentColor" fill-rule="evenodd" d="M9.732 22.5H8.93l-.51-6.806A.75.75 0 0 0 7.674 15H6.74V5.253c0-2.07 1.68-3.753 3.744-3.753h9.726a.75.75 0 0 0 .749-.75.75.75 0 0 0-.749-.75h-9.725c-2.89 0-5.242 2.357-5.242 5.253V15h-.936a.75.75 0 0 0-.746.694L3.05 22.5h-.802a.75.75 0 0 0-.748.75c0 .415.335.75.748.75h7.484a.75.75 0 0 0 .749-.75.75.75 0 0 0-.749-.75m6.736-17.25c1.673 0 3.108-.93 3.741-2.25h-7.483c.633 1.32 2.068 2.25 3.742 2.25m-.749 2.25a.748.748 0 1 1 1.497 0v2.25a.748.748 0 1 1-1.497 0zm6.562-.11-1.73-1.733a.75.75 0 0 0-1.058 0 .753.753 0 0 0 0 1.061l1.73 1.733a.746.746 0 0 0 1.058 0 .75.75 0 0 0 0-1.06m-11.769 0 1.73-1.733a.746.746 0 0 1 1.058 0 .75.75 0 0 1 0 1.06l-1.729 1.734a.748.748 0 1 1-1.059-1.06" clip-rule="evenodd"/></svg>
